X: 350
M: 2/4
L: 1/8
K: G
|:\
|:\
(dB) (ec) | (dB) (ec) | d2 cB | A4 |\
|:\
d2 d2 | d2 G2 | (ce) (d=f) | e4 |\
d2 (gf) | efgA | (cB)(AG) | G4 :|

